Papirus/22x22/apps/awesomebump.svg

<?xml version="1.0" encoding="UTF-8"?>
<svg id="_图层_1" xmlns="http://www.w3.org/2000/svg" version="1.1" viewBox="0 0 64 64" width="22" height="22">
  <!-- Generator: Adobe Illustrator 29.0.1, SVG Export Plug-In . SVG Version: 2.1.0 Build 192)  -->
  <defs>
    <style>
      .st0, .st1, .st2, .st3 {
        display: none;
      }

      .st0, .st4 {
        fill: #b0aca9;
      }

      .st5 {
        fill: #4f4f4f;
      }

      .st1, .st6, .st7, .st8, .st3 {
        isolation: isolate;
      }

      .st1, .st7, .st8, .st3 {
        opacity: .2;
      }

      .st9 {
        fill: none;
        stroke: #ff631b;
        stroke-linecap: round;
        stroke-linejoin: round;
        stroke-width: 5.1px;
      }

      .st6 {
        opacity: .1;
      }

      .st10 {
        fill: #ff631b;
      }

      .st11 {
        fill: #1554d4;
      }

      .st12 {
        fill: #1e298c;
      }

      .st13 {
        fill: #ffc500;
      }

      .st8, .st3 {
        fill: #fff;
      }
    </style>
  </defs>
  <path class="st4" d="M50.3,64H13.8c-7.6,0-13.8-6.2-13.8-13.7V13.7C0,6.2,6.2,0,13.7,0h36.5c7.5,0,13.7,6.2,13.7,13.7v36.6c0,7.5-6.2,13.7-13.7,13.7h0Z"/>
  <g class="st2">
    <path class="st7" d="M28.6,7.6c-.9,0-1,.5-1.5,1.8L10,53.1c-.9,2.1-1.1,2.2,1.2,2.2h6.1c2.3,0,2.5,0,3.2-1.9l3.5-8.3h17.6l3.5,8.3c.8,2,.9,1.9,3.2,1.9h6.1c2.3,0,2.1,0,1.2-2.2L38.4,9.4c-.5-1.3-.6-1.8-1.5-1.8h-8.2ZM32.7,22.1l5.1,12.9h-10.1l5.1-12.9Z"/>
    <path class="st5" d="M28.6,6.8c-.9,0-1,.5-1.5,1.8L10,52.2c-.9,2.1-1.1,2.2,1.2,2.2h6.1c2.3,0,2.5,0,3.2-1.9l3.5-8.3h17.6l3.5,8.3c.8,2,.9,1.9,3.2,1.9h6.1c2.3,0,2.1,0,1.2-2.2L38.4,8.6c-.5-1.3-.6-1.8-1.5-1.8h-8.2ZM32.7,21.2l5.1,12.9h-10.1l5.1-12.9Z"/>
    <path class="st9" d="M35.2,24.1c12.6,7,21.8,15.2,20.4,18.3-1.3,3.1-12.7,0-25.3-7.1-12.6-7-21.8-15.2-20.4-18.3s12.7,0,25.3,7.1Z"/>
    <path class="st5" d="M21,24.1l-3.3,8.3,21.8,11.8h2l.7,1.3,13.2,6.4-5.5-13.9-13.1-6.3,1,2.5h-10.1l2.3-5.8-8.9-4.3Z"/>
    <path class="st9" d="M30.3,24.1c-12.6,7-21.8,15.2-20.4,18.3s12.7,0,25.3-7.1c12.6-7,21.8-15.2,20.4-18.3s-12.7,0-25.3,7.1Z"/>
    <path class="st10" d="M25,24.7l4.3,2.5c-3.9,2.2-7.3,4.6-10.2,6.8l-3.5-2.7c2.6-2.1,5.8-4.3,9.3-6.5Z"/>
    <path class="st5" d="M44.5,24.1l3.3,8.3-21.8,11.8h-2l-.7,1.3-13.2,6.4,5.5-13.9,13.1-6.3-1,2.5h10.1l-2.3-5.8,8.9-4.3Z"/>
    <path class="st10" d="M40.4,24.7l-4.3,2.5c3.9,2.2,7.3,4.6,10.2,6.8l3.5-2.7c-2.6-2.1-5.8-4.3-9.3-6.5Z"/>
    <path class="st7" d="M7.7,18.1c0,.6,0,1.2.2,1.8.2.9.7,1.7,1.2,2.5,1.1,1.6,2.6,3.2,4.5,5,1,.9,2.2,1.9,3.5,2.9.2-.1.4-.3.6-.4-1.5-1.1-2.9-2.2-4-3.3-1.9-1.7-3.5-3.4-4.5-5-.5-.8-.9-1.6-1.2-2.5,0-.3-.1-.6-.2-.9ZM12.8,18.1c-.4,0-.6,0-.8.1,0,.2.2.4.4.8,0,0,0,0,0,0,.1,0,.2,0,.4,0,1.1,0,2.9.3,5.1.9,4.4,1.2,10.2,3.7,16.4,7.1,6.2,3.4,11.5,7.2,15.1,10.3,1.7,1.6,3,3,3.7,4,.2,0,.3,0,.4,0,0-.2-.2-.4-.4-.8-.7-1-2-2.5-3.7-4-3.5-3.2-8.9-6.9-15.1-10.3-6.2-3.4-12.1-5.9-16.4-7.1-2.2-.6-4-.9-5.1-.9ZM57.8,42.3c0,.4-.1.8-.3,1.2-.4,1-1.2,1.6-2,1.9-.8.3-1.6.4-2.5.5l.3.8c.8,0,1.5-.2,2.1-.4.8-.3,1.6-1,2-1.9.3-.7.3-1.4.3-2.1Z"/>
    <ellipse class="st7" cx="18.5" cy="17" rx="5.8" ry="5.9"/>
    <ellipse class="st13" cx="18.5" cy="16.1" rx="5.8" ry="5.9"/>
    <path class="st8" d="M18.5,10.2c-3.2,0-5.8,2.7-5.8,5.9,0,.1,0,.3,0,.4.2-3.1,2.8-5.5,5.8-5.5,3.1,0,5.6,2.4,5.8,5.5,0-.1,0-.3,0-.4,0-3.3-2.6-5.9-5.8-5.9Z"/>
    <path class="st7" d="M57.8,18.1c0,.3,0,.6-.2.9-.2.9-.7,1.7-1.2,2.5-1.1,1.6-2.6,3.2-4.5,5-1.2,1.1-2.6,2.2-4,3.3.2.1.4.3.6.4,1.3-1,2.4-1.9,3.5-2.9,1.9-1.7,3.5-3.4,4.5-5,.5-.8.9-1.6,1.2-2.5.1-.5.2-1.1.2-1.8ZM52.7,18.1c-1.1,0-2.9.3-5.1.9-2.8.8-6.4,2.1-10.2,3.9.3.2.5.3.8.5,3.5-1.6,6.7-2.8,9.4-3.6,2.2-.6,4-.9,5.1-.9.2,0,.3,0,.4,0,0,0,0,0,0,0,.2-.4.3-.5.4-.8-.2,0-.4-.1-.8-.1ZM32.7,25.3c-.5.3-1,.6-1.6.8-6.2,3.4-11.5,7.2-15.1,10.3-1.8,1.6-3.1,3-3.7,4-.2.4-.3.5-.4.8.1,0,.2,0,.4,0,.7-1,2-2.5,3.7-4,3.5-3.2,8.9-6.9,15.1-10.3.8-.4,1.6-.9,2.4-1.3-.3-.1-.5-.3-.8-.4ZM7.7,42.3c0,.7,0,1.4.3,2.1.4,1,1.2,1.6,2,1.9.7.3,1.4.4,2.1.4l.3-.8c-.9,0-1.7-.1-2.5-.5-.8-.3-1.6-1-2-1.9-.2-.4-.2-.8-.3-1.2Z"/>
    <ellipse class="st7" cx="50.7" cy="25.1" rx="4.6" ry="4.7"/>
    <ellipse class="st13" cx="50.7" cy="24.2" rx="4.6" ry="4.7"/>
    <path class="st8" d="M50.7,19.5c-2.5,0-4.6,2.1-4.6,4.7,0,.1,0,.3,0,.4.2-2.4,2.2-4.2,4.6-4.2,2.4,0,4.4,1.9,4.6,4.3,0-.1,0-.3,0-.4,0-2.6-2.1-4.7-4.6-4.7Z"/>
  </g>
  <g>
    <path class="st1" d="M0,59.3v2.3c0,1.9,1.5,3.4,3.4,3.4h57.1c1.9,0,3.4-1.5,3.4-3.4v-2.3c0,1.9-1.5,3.4-3.4,3.4H3.4c-1.9,0-3.4-1.5-3.4-3.4Z"/>
    <path class="st0" d="M3.4,0h57.1c1.9,0,3.4,1.5,3.4,3.4v57c0,1.9-1.5,3.4-3.4,3.4H3.4c-1.9,0-3.4-1.5-3.4-3.4V3.4C0,1.5,1.5,0,3.4,0Z"/>
    <path class="st3" d="M3.4,0C1.5,0,0,1.5,0,3.4v1.1C0,2.7,1.5,1.1,3.4,1.1h57.1c1.9,0,3.4,1.5,3.4,3.4v-1.1c0-1.9-1.5-3.4-3.4-3.4H3.4Z"/>
    <path class="st6" d="M9.4,8c-1.4,0-2.5,1.1-2.5,2.5v45.2c0,1.4,1.1,2.5,2.5,2.5h45.2c1.4,0,2.5-1.1,2.5-2.5V10.5c0-1.4-1.1-2.5-2.5-2.5H9.4Z"/>
    <path class="st11" d="M9.4,6.8c-1.4,0-2.5,1.1-2.5,2.5v45.2c0,1.4,1.1,2.5,2.5,2.5h45.2c1.4,0,2.5-1.1,2.5-2.5V9.3c0-1.4-1.1-2.5-2.5-2.5H9.4Z"/>
    <path class="st12" d="M32,17.1v7.8l10.6,19.5h3.1s8,0,8-8-4.6-6.8-4.6-6.8c0,0,2.3-1.1,2.3-5.7,0-6.8-5.7-6.8-5.7-6.8h-13.7ZM32,34.5v7.7h4.2l-4.2-7.7Z"/>
    <path class="st12" d="M25.1,17.1l-14.9,27.4h10.3l4.6-8,4.6,8h10.3l-14.9-27.4Z"/>
  </g>
</svg>

<?xml version="1.0" encoding="UTF-8" standalone="no"?>
<svg
   id="_图层_1"
   version="1.1"
   viewBox="0 0 64 64" width="22" height="22"
   sodipodi:docname="awesomebump.svg"
   xml:space="preserve"
   inkscape:version="1.4 (e7c3feb100, 2024-10-09)"
   xmlns:inkscape="http://www.inkscape.org/namespaces/inkscape"
   xmlns:sodipodi="http://sodipodi.sourceforge.net/DTD/sodipodi-0.dtd"
   xmlns="http://www.w3.org/2000/svg"
   xmlns:svg="http://www.w3.org/2000/svg"><sodipodi:namedview
     id="namedview26"
     pagecolor="#505050"
     bordercolor="#eeeeee"
     borderopacity="1"
     inkscape:showpageshadow="0"
     inkscape:pageopacity="0"
     inkscape:pagecheckerboard="0"
     inkscape:deskcolor="#505050"
     inkscape:zoom="10.6875"
     inkscape:cx="32"
     inkscape:cy="32"
     inkscape:window-width="1920"
     inkscape:window-height="939"
     inkscape:window-x="0"
     inkscape:window-y="34"
     inkscape:window-maximized="1"
     inkscape:current-layer="_图层_1" /><!-- Generator: Adobe Illustrator 29.0.1, SVG Export Plug-In . SVG Version: 2.1.0 Build 192)  --><defs
     id="defs6"><style
       id="style1">
      .st0 {
        fill-opacity: .5;
      }

      .st0, .st1, .st2, .st3, .st4, .st5, .st6, .st7 {
        fill: #fff;
      }

      .st8 {
        fill: #133c9a;
      }

      .st2, .st9 {
        display: none;
      }

      .st3 {
        fill-opacity: .2;
      }

      .st4 {
        fill-opacity: .9;
      }

      .st10 {
        fill: #3370ff;
      }

      .st11 {
        fill: url(#_未命名的渐变_3);
      }

      .st12 {
        fill: url(#_未命名的渐变);
      }

      .st5 {
        fill-opacity: .3;
      }

      .st6 {
        fill-opacity: 0;
      }

      .st7 {
        fill-opacity: .7;
      }

      .st13 {
        fill: #00d6b9;
      }

      .st14 {
        fill: url(#_未命名的渐变_2);
      }
    </style><radialGradient
       id="_未命名的渐变"
       data-name="未命名的渐变"
       cx="123.9"
       cy="-40.2"
       fx="123.9"
       fy="-40.2"
       r="59.4"
       gradientTransform="translate(-26.8 25.5) scale(.6 -.7)"
       gradientUnits="userSpaceOnUse"><stop
         offset="0"
         stop-color="#db202e"
         id="stop1" /><stop
         offset="1"
         stop-color="#e01b24"
         id="stop2" /></radialGradient><radialGradient
       id="_未命名的渐变_2"
       data-name="未命名的渐变 2"
       cx="67.6"
       cy="26.8"
       fx="67.6"
       fy="26.8"
       r="105.2"
       gradientTransform="translate(-26.6 25.3) scale(.6 -.7)"
       gradientUnits="userSpaceOnUse"><stop
         offset="0"
         stop-color="#ffb648"
         id="stop3" /><stop
         offset="1"
         stop-color="#ff7800"
         stop-opacity="0"
         id="stop4" /></radialGradient><radialGradient
       id="_未命名的渐变_3"
       data-name="未命名的渐变 3"
       cx="61.7"
       cy="18.6"
       fx="61.7"
       fy="18.6"
       r="68"
       gradientTransform="translate(-26.8 25.8) scale(.6 -.7)"
       gradientUnits="userSpaceOnUse"><stop
         offset="0"
         stop-color="#c64600"
         id="stop5" /><stop
         offset="1"
         stop-color="#a51d2d"
         id="stop6" /></radialGradient><style
       id="style1-6">
      .st0, .st1, .st2, .st3 {
        display: none;
      }

      .st0, .st4 {
        fill: #b0aca9;
      }

      .st5 {
        fill: #4f4f4f;
      }

      .st1, .st6, .st7, .st8, .st3 {
        isolation: isolate;
      }

      .st1, .st7, .st8, .st3 {
        opacity: .2;
      }

      .st9 {
        fill: none;
        stroke: #ff631b;
        stroke-linecap: round;
        stroke-linejoin: round;
        stroke-width: 5.1px;
      }

      .st6 {
        opacity: .1;
      }

      .st10 {
        fill: #ff631b;
      }

      .st11 {
        fill: #1554d4;
      }

      .st12 {
        fill: #1e298c;
      }

      .st13 {
        fill: #ffc500;
      }

      .st8, .st3 {
        fill: #fff;
      }
    </style></defs><path
     class="st1"
     d="M47.5,64.1H13.8c-7.6,0-13.8-6.3-13.8-13.8V13.7C0,6.2,6.2,0,13.7,0h36.6c7.5,0,13.7,6.2,13.7,13.7v36.6c0,7.5-6.2,13.7-13.7,13.7h-2.9.1Z"
     id="path6"
     style="fill:#1554d4;fill-opacity:1" /><g
     id="g26"
     transform="translate(0.14356725)"
     style="display:inline"><path
       class="st4"
       d="M 50.3,64 H 13.8 C 6.2,64 0,57.8 0,50.3 V 13.7 C 0,6.2 6.2,0 13.7,0 h 36.5 c 7.5,0 13.7,6.2 13.7,13.7 V 50.3 C 63.9,57.8 57.7,64 50.2,64 v 0 z"
       id="path1"
       style="fill:#1554d4;fill-opacity:1" /><g
       id="g20-2"><path
         class="st1"
         d="m 0,59.3 v 2.3 C 0,63.5 1.5,65 3.4,65 h 57.1 c 1.9,0 3.4,-1.5 3.4,-3.4 v -2.3 c 0,1.9 -1.5,3.4 -3.4,3.4 H 3.4 C 1.5,62.7 0,61.2 0,59.3 Z"
         id="path14-7" /><path
         class="st0"
         d="m 3.4,0 h 57.1 c 1.9,0 3.4,1.5 3.4,3.4 v 57 c 0,1.9 -1.5,3.4 -3.4,3.4 H 3.4 C 1.5,63.8 0,62.3 0,60.4 V 3.4 C 0,1.5 1.5,0 3.4,0 Z"
         id="path15-0" /><path
         class="st3"
         d="M 3.4,0 C 1.5,0 0,1.5 0,3.4 V 4.5 C 0,2.7 1.5,1.1 3.4,1.1 h 57.1 c 1.9,0 3.4,1.5 3.4,3.4 V 3.4 C 63.9,1.5 62.4,0 60.5,0 Z"
         id="path16-9" /><path
         class="st6"
         d="M 9.4,8 C 8,8 6.9,9.1 6.9,10.5 v 45.2 c 0,1.4 1.1,2.5 2.5,2.5 h 45.2 c 1.4,0 2.5,-1.1 2.5,-2.5 V 10.5 C 57.1,9.1 56,8 54.6,8 Z"
         id="path17-3" /><path
         class="st11"
         d="M 9.4,6.8 C 8,6.8 6.9,7.9 6.9,9.3 V 54.5 C 6.9,55.9 8,57 9.4,57 h 45.2 c 1.4,0 2.5,-1.1 2.5,-2.5 V 9.3 C 57.1,7.9 56,6.8 54.6,6.8 Z"
         id="path18-6" /><path
         class="st12"
         d="m 32,17.1 v 7.8 l 10.6,19.5 h 3.1 c 0,0 8,0 8,-8 0,-8 -4.6,-6.8 -4.6,-6.8 0,0 2.3,-1.1 2.3,-5.7 0,-6.8 -5.7,-6.8 -5.7,-6.8 z m 0,17.4 v 7.7 h 4.2 z"
         id="path19-0" /><path
         class="st12"
         d="M 25.1,17.1 10.2,44.5 h 10.3 l 4.6,-8 4.6,8 H 40 Z"
         id="path20-6" /></g></g></svg>
